!!!ONB: MCCC : ILB0162_01 : Extracted Monophonic Melody
!!!COM: Beethoven, Ludwig van
!!!OPR: Piano Sonata No.1
!!!OMV: 1
!!!SCT: Op.2 No.1
!!!ODT: 1793///
**kern
*thru
*Ipiano
*>A
*clefG2
*k[b-e-a-d-]
*f:
*M2/2
*MM240
4c
=1
4f
4a-
4cc
4ff
=2
4.aa-
24gg
24ff
24ee
4ff
4r
=3
4g
4cc
4ee
4gg
=4
4.bb-
24aa-
24gg
24ff
4gg
4r
=5
4.aa-
24gg
24ff
24ee
4ff
4r
=6
4.bb-
24aa-
24gg
24ff
4gg
4r
=7
2ccc:
8bb-
8aa-
8gg
8ff
=8
4ff
4ee
4r
4r
=9
1r
=10
1r
=11
1a-
=12
1dd-[
=13
4.dd-]
24ee-
24dd-
24cc
4dd-
4dd-
=14
1a-
=15
4cc
2b-
4a-
=16
4g
4ee-
4dd-
4cc[
=17
4cc]
2b-
4a-
=18
4g
4ee-
4dd-
4cc[
=19
4cc]
2b-
4a-
=20
4g
4r
4r
4ff-
=21
4ee-
4dd-
4b-
4g
=22
4.f-
8e-
4a-
4ff-
=23
4ee-
4dd-
4b-
4g
=24
4.f-
8e-
4a-
4ff-
=25
4ee-
4dd-
4b-
4g
=26
8r
8g
8b-
8a-
8r
8a
8cc
8b-
=27
8r
8b
8dd-
8cc
8r
8dd
8aa-
8dd
=28
4ee-
4r
8r
8dd
8aa-
8dd
=29
4ee-
4r
8r
8gg
8fff-
8gg
=30
4aa-
4r
8r
8gg
8fff-
8gg
=31
8r
8gg
8bb-
8aa-
8r
8aa
8ccc
8bb-
=32
8r
8bb
8ddd-
8ccc
8r
8ccc
8eee-
8ddd-
=33
8r
8ddd
8fff
8eee-
8ddd-
8ccc
8bb-
8aa-
=34
8gg
8ff
8ee-
8dd-
8cc
8b-
8a-
8g
=35
8f
8e-
8d
8e-
8d
8e-
8d
8e-
=36
8d
8e-
8f
8e-
8d
8e-
8f
8e-
=37
8r
8aa-
8fff
8eee-
8ddd-
8ccc
8bb-
8aa-
=38
8gg
8ff
8ee-
8dd-
8cc
8b-
8a-
8g
=39
8f
8e-
8d-
8c
8B-
8A-
8G
8F
=40
8E-
8F
8G
8A-
8B-
8c
8d-
8B-
=41
4A-
4r
4.cc-
8b-
=42
2a-
4.g
8ee-
=43
4ee-
4a-
4.cc-
8b-
=44
2a-
4.g
8ee-
=45
4ee-
4a-
4.ccc-
8bb-
=46
2aa-
4.gg
8eee-
=47
1eee-
=48
4aa-
4r
4r
*>A
*M2/2
4c
=49
4f
4a-
4cc
4ff
=50
4.aa-
24gg
24ff
24ee
4ff
4r
=51
4g
4cc
4ee
4gg
=52
4.bb-
24aa-
24gg
24ff
4gg
4r
=53
4.aa-
24gg
24ff
24ee
4ff
4r
=54
4.bb-
24aa-
24gg
24ff
4gg
4r
=55
2ccc:
8bb-
8aa-
8gg
8ff
=56
4ff
4ee
4r
4r
=57
1r
=58
1r
=59
1a-
=60
1dd-[
=61
4.dd-]
24ee-
24dd-
24cc
4dd-
4dd-
=62
1a-
=63
4cc
2b-
4a-
=64
4g
4ee-
4dd-
4cc[
=65
4cc]
2b-
4a-
=66
4g
4ee-
4dd-
4cc[
=67
4cc]
2b-
4a-
=68
4g
4r
4r
4ff-
=69
4ee-
4dd-
4b-
4g
=70
4.f-
8e-
4a-
4ff-
=71
4ee-
4dd-
4b-
4g
=72
4.f-
8e-
4a-
4ff-
=73
4ee-
4dd-
4b-
4g
=74
8r
8g
8b-
8a-
8r
8a
8cc
8b-
=75
8r
8b
8dd-
8cc
8r
8dd
8aa-
8dd
=76
4ee-
4r
8r
8dd
8aa-
8dd
=77
4ee-
4r
8r
8gg
8fff-
8gg
=78
4aa-
4r
8r
8gg
8fff-
8gg
=79
8r
8gg
8bb-
8aa-
8r
8aa
8ccc
8bb-
=80
8r
8bb
8ddd-
8ccc
8r
8ccc
8eee-
8ddd-
=81
8r
8ddd
8fff
8eee-
8ddd-
8ccc
8bb-
8aa-
=82
8gg
8ff
8ee-
8dd-
8cc
8b-
8a-
8g
=83
8f
8e-
8d
8e-
8d
8e-
8d
8e-
=84
8d
8e-
8f
8e-
8d
8e-
8f
8e-
=85
8r
8aa-
8fff
8eee-
8ddd-
8ccc
8bb-
8aa-
=86
8gg
8ff
8ee-
8dd-
8cc
8b-
8a-
8g
=87
8f
8e-
8d-
8c
8B-
8A-
8G
8F
=88
8E-
8F
8G
8A-
8B-
8c
8d-
8B-
=89
4A-
4r
4.cc-
8b-
=90
2a-
4.g
8ee-
=91
4ee-
4a-
4.cc-
8b-
=92
2a-
4.g
8ee-
=93
4ee-
4a-
4.ccc-
8bb-
=94
2aa-
4.gg
8eee-
=95
1eee-
=96
4aa-
4r
4r
*>B
4e-
=97
4a-
4cc
4ee-
4aa-
=98
4.ccc
24bb-
24aa-
24gg
4aa-
4r
=99
4.ddd-
24ccc
24bb-
24aa
4bb-
4r
=100
4b-
4dd-
4gg
4bb-
=101
4.ddd-
24ccc
24bb-
24aa
4bb-
4r
=102
4.ddd-
24ccc
24bb-
24aa
4bb-
4r
=103
4aa
4r
4r
4gg-
=104
4ff
4ee-
4cc
4a
=105
4.g-
8f
4b-
4gg-
=106
4ff
4ee-
4cc
4a
=107
4.g-
8f
4b-
4gg-
=108
4ff
4ee-
4cc
4a
=109
8r
8a
8cc
8b-
8r
8b-
8dd-
8cc
=110
8r
8cc
8ee-
8dd-
8r
8b
8dd
8cc
=111
4b
4r
4r
4aa-
=112
4gg
4ff
4dd
4b
=113
4.a-
8g
4cc
4aa-
=114
4gg
4ff
4dd
4b
=115
4.a-
8g
4cc
8f
8d
=116
8f
8d
8f
8d
8f
8d
8f
8d
=117
8f
8d
4b
4cc
8e-
8c
=118
8e-
8c
8e-
8c
8e-
8c
8e-
8c
=119
8e-
8c
4a
4b-
8d-
8B-
=120
8d-
8B-
8d-
8B-
8d-
8B-
8d-
8B-
=121
8d-
8B-
8d-
8B-
2g
=122
8c
8A-
8e-
8A-
2a-
=123
8d-
8A-
8d-
8A-
2f
=124
8d-
8G
8d-
8G
2g
=125
8c
8G
8c
8G
2e
=126
8A-
8F
8c
8F
2f
=127
8d-
8F
8d-
8F
2f
=128
8d
8F
8f
8F
8f
8F
8f
8F
=129
4e
4r
4r
4cc
=130
4a-
4r
4r
4ff
=131
4ee
4r
4r
4ccc
=132
4ff
4r
2fff
=133
4eee
4r
4r
4cc
=134
4a-
4a-
4r
4ff
=135
4ee
4ee
4r
4ccc
=136
4ff
4ff
4r
4fff
=137
4eee
4eee
4r
4ddd-
=138
4ccc
4ccc
4r
4fff
=139
4eee
4eee
4r
4ddd-
=140
4ccc
4ccc
4r
4fff
=141
4eee
4r
2r
=142
1r
=143
4r
8r
24a-
24g-
24f
4g-
4r
=144
4r
8r
24eee-
24ddd-
24ccc
4ddd-
4r
=145
4r
8r
24f
24e
24d
4e
4r
=146
4r
8r
24ddd-
24ccc
24bb
4ccc
4r
=147
4r
8r
24e-
24d
24c
4d
4r
=148
4r
8r
24ccc
24bb-
24aa
4bb-
4r
=149
4f
4a-
4cc
4ff
=150
4.aa-
24gg
24ff
24ee
4ff
4r
=151
4g
4cc
4ee
4gg
=152
4.bb-
24aa-
24gg
24ff
4gg
4r
=153
4.aa-
24gg
24ff
24ee
4ff
4r
=154
4.bb-
24aa-
24gg
24ff
4gg
4r
=155
2ccc:
8bb-
8aa-
8gg
8ff
=156
4ff
4ee
4r
4r
=157
1r
=158
1r
=159
4.bb-
24aa-
24gg-
24ff
4gg-
4gg-
=160
1gg-
=161
4.gg-
24gg-
24ff
24ee
4ff
4ff
=162
1ff
=163
1b
=164
4aa-
4ee
4ff
4b
=165
4cc
4ee
4ff
4gg
=166
4aa-
4ee
4ff
4b
=167
4cc
4r
4r
4dd-
=168
4cc
4b-
4g
4e
=169
4.d-
8c
4f
4ddd-
=170
4ccc
4bb-
4gg
4ee
=171
4.dd-
8cc
4ff
4ddd-
=172
4ccc
4bb-
4gg
4ee
=173
8r
8ee
8gg
8ff
8r
8ff
8aa-
8gg
=174
8r
8gg
8bb-
8aa-
8r
8bb
8fff
8bb
=175
4ccc
4r
8r
8bb
8fff
8bb
=176
4ccc
4r
8r
8ee
8ddd-
8ee
=177
4ff
4r
8r
8ee
8ddd-
8ee
=178
8r
8ee
8gg
8ff
8r
8ff
8aa-
8gg
=179
8r
8gg
8bb-
8aa-
8r
8aa
8ccc
8bb-
=180
8r
8ccc
8fff
8eee-
8ddd-
8ccc
8bb-
8aa-
=181
8gg
8ff
8ee-
8dd-
8cc
8b-
8a-
8g
=182
8f
8e
8d-
8c
8B
8c
8B
8c
=183
8B
8c
8d-
8c
8B
8c
8d-
8c
=184
8r
8ccc
8fff
8eee-
8ddd-
8ccc
8bb-
8aa-
=185
8gg
8ff
8ee-
8dd-
8cc
8b-
8a-
8g
=186
8f
8e
8d-
8c
8B
8c
8B
8c
=187
8B
8c
8d-
8c
8c
8B-
8A-
8G
=188
4F
4r
4.a-
8g
=189
2f
4.e
8cc
=190
4cc
4f
4.a-
8g
=191
2f
4.e
8cc
=192
4cc
4f
4.aa-
8gg
=193
2ff
4.ee
8ccc
=194
1ccc
=195
4ff
4r
4r
8r
8bb-
=196
1bb-
=197
4ee-
4r
4r
4aa-
=198
4dd-
4gg
4cc
4ff
=199
4ff
4r
4ee
4r
=200
4ff
4r
4r
*>B
4e-
=201
4a-
4cc
4ee-
4aa-
=202
4.ccc
24bb-
24aa-
24gg
4aa-
4r
=203
4.ddd-
24ccc
24bb-
24aa
4bb-
4r
=204
4b-
4dd-
4gg
4bb-
=205
4.ddd-
24ccc
24bb-
24aa
4bb-
4r
=206
4.ddd-
24ccc
24bb-
24aa
4bb-
4r
=207
4aa
4r
4r
4gg-
=208
4ff
4ee-
4cc
4a
=209
4.g-
8f
4b-
4gg-
=210
4ff
4ee-
4cc
4a
=211
4.g-
8f
4b-
4gg-
=212
4ff
4ee-
4cc
4a
=213
8r
8a
8cc
8b-
8r
8b-
8dd-
8cc
=214
8r
8cc
8ee-
8dd-
8r
8b
8dd
8cc
=215
4b
4r
4r
4aa-
=216
4gg
4ff
4dd
4b
=217
4.a-
8g
4cc
4aa-
=218
4gg
4ff
4dd
4b
=219
4.a-
8g
4cc
8f
8d
=220
8f
8d
8f
8d
8f
8d
8f
8d
=221
8f
8d
4b
4cc
8e-
8c
=222
8e-
8c
8e-
8c
8e-
8c
8e-
8c
=223
8e-
8c
4a
4b-
8d-
8B-
=224
8d-
8B-
8d-
8B-
8d-
8B-
8d-
8B-
=225
8d-
8B-
8d-
8B-
2g
=226
8c
8A-
8e-
8A-
2a-
=227
8d-
8A-
8d-
8A-
2f
=228
8d-
8G
8d-
8G
2g
=229
8c
8G
8c
8G
2e
=230
8A-
8F
8c
8F
2f
=231
8d-
8F
8d-
8F
2f
=232
8d
8F
8f
8F
8f
8F
8f
8F
=233
4e
4r
4r
4cc
=234
4a-
4r
4r
4ff
=235
4ee
4r
4r
4ccc
=236
4ff
4r
2fff
=237
4eee
4r
4r
4cc
=238
4a-
4a-
4r
4ff
=239
4ee
4ee
4r
4ccc
=240
4ff
4ff
4r
4fff
=241
4eee
4eee
4r
4ddd-
=242
4ccc
4ccc
4r
4fff
=243
4eee
4eee
4r
4ddd-
=244
4ccc
4ccc
4r
4fff
=245
4eee
4r
2r
=246
1r
=247
4r
8r
24a-
24g-
24f
4g-
4r
=248
4r
8r
24eee-
24ddd-
24ccc
4ddd-
4r
=249
4r
8r
24f
24e
24d
4e
4r
=250
4r
8r
24ddd-
24ccc
24bb
4ccc
4r
=251
4r
8r
24e-
24d
24c
4d
4r
=252
4r
8r
24ccc
24bb-
24aa
4bb-
4r
=253
4f
4a-
4cc
4ff
=254
4.aa-
24gg
24ff
24ee
4ff
4r
=255
4g
4cc
4ee
4gg
=256
4.bb-
24aa-
24gg
24ff
4gg
4r
=257
4.aa-
24gg
24ff
24ee
4ff
4r
=258
4.bb-
24aa-
24gg
24ff
4gg
4r
=259
2ccc:
8bb-
8aa-
8gg
8ff
=260
4ff
4ee
4r
4r
=261
1r
=262
1r
=263
4.bb-
24aa-
24gg-
24ff
4gg-
4gg-
=264
1gg-
=265
4.gg-
24gg-
24ff
24ee
4ff
4ff
=266
1ff
=267
1b
=268
4aa-
4ee
4ff
4b
=269
4cc
4ee
4ff
4gg
=270
4aa-
4ee
4ff
4b
=271
4cc
4r
4r
4dd-
=272
4cc
4b-
4g
4e
=273
4.d-
8c
4f
4ddd-
=274
4ccc
4bb-
4gg
4ee
=275
4.dd-
8cc
4ff
4ddd-
=276
4ccc
4bb-
4gg
4ee
=277
8r
8ee
8gg
8ff
8r
8ff
8aa-
8gg
=278
8r
8gg
8bb-
8aa-
8r
8bb
8fff
8bb
=279
4ccc
4r
8r
8bb
8fff
8bb
=280
4ccc
4r
8r
8ee
8ddd-
8ee
=281
4ff
4r
8r
8ee
8ddd-
8ee
=282
8r
8ee
8gg
8ff
8r
8ff
8aa-
8gg
=283
8r
8gg
8bb-
8aa-
8r
8aa
8ccc
8bb-
=284
8r
8ccc
8fff
8eee-
8ddd-
8ccc
8bb-
8aa-
=285
8gg
8ff
8ee-
8dd-
8cc
8b-
8a-
8g
=286
8f
8e
8d-
8c
8B
8c
8B
8c
=287
8B
8c
8d-
8c
8B
8c
8d-
8c
=288
8r
8ccc
8fff
8eee-
8ddd-
8ccc
8bb-
8aa-
=289
8gg
8ff
8ee-
8dd-
8cc
8b-
8a-
8g
=290
8f
8e
8d-
8c
8B
8c
8B
8c
=291
8B
8c
8d-
8c
8c
8B-
8A-
8G
=292
4F
4r
4.a-
8g
=293
2f
4.e
8cc
=294
4cc
4f
4.a-
8g
=295
2f
4.e
8cc
=296
4cc
4f
4.aa-
8gg
=297
2ff
4.ee
8ccc
=298
1ccc
=299
4ff
4r
4r
8r
8bb-
=300
1bb-
=301
4ee-
4r
4r
4aa-
=302
4dd-
4gg
4cc
4ff
=303
4ff
4r
4ee
4r
=304
4ff
4r
4r
==
*-
